X:8055
T:Where Are You Going?
O:england
M:3/4
L:1/4
Q:110
C:Words and music by Catherine Faber, (c) 1990
S:From "A Breeze Through the CONduit"
A:Filk
B:A Breeze Through the CONduit, (c) 1992 by Julia West
D:on the tape, "A Breeze Through the CONduit"
W:Where are you going, steel-wearer, prince-rider?
W:What are you knowing, cool-carer, bane bider?
W:Your brother at hand and a sword by your side,
W:Through this blasted land, tell me, where do you ride?
K:G
B B B|BD E/2F/2 G|A3 Z|
A B A G/2F/2|G A G F|E F E/2 D/2-D A,3 A|
A>B A F|G A B B|A A G F|E3 A,|
D D E E| FG|F F E C|D4|
C C C>C|C D E E|F D D C|D3 D|
C C C C|C D E E|F>D F G|A3 A,|
A B A F|G>A B B|AE|FA G2|F2 E>C|D4||
Julia West's Songs in ABC notationJulia West's Songs in ABC notation
How to use this file: Save as a text file (ASCII) with a name something like
"WEST.ABC" (the .ABC is what's important), get rid of the HTML formatting and
all these headers (anything outside the <pre> and </pre> tags), then use with
any ABC processing tool to hear and/or print the tunes.
Only the first verse (and chorus if applicable) is available here; check
elsewhere on http://www.sff.net/people/julia.west/filking.html for the rest of
the lyrics to these songs.


